packages/icons/src/components/Icon/assets/default-solid/rocket.svg

<svg width="20" height="20" viewBox="0 0 20 20" fill="none" xmlns="http://www.w3.org/2000/svg">
<path fill-rule="evenodd" clip-rule="evenodd" d="M5.20531 12.6392C5.43063 12.9304 5.37723 13.3491 5.08604 13.5745C4.55933 13.982 4.22222 14.6182 4.22222 15.3333C4.22222 15.4728 4.235 15.6089 4.25935 15.7407C4.39108 15.765 4.52717 15.7778 4.66667 15.7778C5.38185 15.7778 6.01798 15.4407 6.42554 14.914C6.65086 14.6228 7.06958 14.5694 7.36077 14.7947C7.65197 15.02 7.70537 15.4387 7.48004 15.7299C6.83084 16.5689 5.81191 17.1111 4.66667 17.1111C4.25781 17.1111 3.86371 17.0418 3.49635 16.9138C3.30419 16.8469 3.15314 16.6958 3.08618 16.5036C2.95817 16.1363 2.88889 15.7422 2.88889 15.3333C2.88889 14.1881 3.43109 13.1692 4.27007 12.52C4.56126 12.2946 4.97998 12.348 5.20531 12.6392Z" fill="#727683"/>
<path fill-rule="evenodd" clip-rule="evenodd" d="M6.22432 11.7778C6.80635 12.5223 7.47766 13.1937 8.22222 13.7757V17.3333C8.22222 17.7015 8.5207 18 8.88889 18C11.3435 18 13.3333 16.0102 13.3333 13.5556C13.3333 13.1198 13.2704 12.6978 13.153 12.2988C16.0859 10.2042 18 6.77023 18 2.88889C18 2.81097 17.9992 2.73321 17.9977 2.65563C17.9906 2.29779 17.7022 2.0094 17.3444 2.00231C17.2668 2.00077 17.189 2 17.1111 2C13.2298 2 9.79584 3.91405 7.70122 6.84703C7.30219 6.72958 6.88025 6.66667 6.44444 6.66667C3.98985 6.66667 2 8.65651 2 11.1111C2 11.4793 2.29848 11.7778 2.66667 11.7778H6.22432ZM12.6667 9.11111C13.6485 9.11111 14.4444 8.31517 14.4444 7.33333C14.4444 6.35149 13.6485 5.55556 12.6667 5.55556C11.6848 5.55556 10.8889 6.35149 10.8889 7.33333C10.8889 8.31517 11.6848 9.11111 12.6667 9.11111Z" fill="#727683"/>
</svg>

<svg xmlns="http://www.w3.org/2000/svg" width="20" height="20" fill="none" viewBox="0 0 20 20">
    <path fill="#727683" fill-rule="evenodd" d="M5.205 12.64a.667.667 0 0 1-.119.934 2.22 2.22 0 0 0-.827 2.167q.198.037.408.037c.715 0 1.351-.337 1.759-.864a.667.667 0 0 1 1.054.816 3.55 3.55 0 0 1-3.984 1.184.67.67 0 0 1-.41-.41A3.55 3.55 0 0 1 4.27 12.52a.667.667 0 0 1 .935.12" clip-rule="evenodd"/>
    <path fill="#727683" fill-rule="evenodd" d="M6.224 11.778a11.6 11.6 0 0 0 1.998 1.998v3.557c0 .369.299.667.667.667a4.444 4.444 0 0 0 4.264-5.701 11.54 11.54 0 0 0 4.845-9.643.667.667 0 0 0-.654-.654L17.111 2a11.54 11.54 0 0 0-9.41 4.847A4.444 4.444 0 0 0 2 11.111c0 .368.298.667.667.667zm6.443-2.667a1.778 1.778 0 1 0 0-3.555 1.778 1.778 0 0 0 0 3.555" clip-rule="evenodd"/>
</svg>
